X:451
T:French Air. RH.452
R:jig
S:Rev.R.Harrison’s MS,c1815,Cumbria
O:England
A:Temple Sowerby,Cumbria
Z:vmp.Simon Wilson. Review PJH, 2008.
M:6/8
L:1/8
Q:3/8=110
K:D
f|(d2c) B2e|(d2c) B2B|g2g (gbg)|\
g2f Bcd|cgf edc|!
B3 ^ABc|(dgf) (eag)|f2f FG^A|\
Bed cfe|d2d ^d2d|!
eee gfe|^d2A (b^ag)|\
f2a (b^ag)|f3 (ce).g|(d3 c2).c|!
(b3 g).e.c|(B3 ^A2)A|\
B2d A2c|B2d ^A2c|BBB B2|]

